X:1
T:[ID 2-20]
T:[ID 2-20]
T:Bezeichnung standardisiert: Malbrook; Ala Malboroug. In anderer Quelle: Winscher Tanz - Hs. aus Arendsee (Anm. S. Wascher);  Malbrook (Anm. S. Wascher); Marlbrough s'en va-t-en guerre (1709);
T:Urheber unbekannt Erstbeleg: 1709 (Datum in der schriftlichen Quelle) Datum in der hier transkribierten schriftlichen Quelle: 1767
C:Urheber unbekannt
C:Erstbeleg: 1709 (Datum in der schriftlichen Quelle)
C:Datum in der hier transkribierten schriftlichen Quelle: 1767
L:1/8
M:6/8
K:G
V:1 treble 
V:1
 G/A/ | B2 B BAB | c3 BcB | A2 A AGA | B2 G2 G/A/ | B2 B BAB | c3 B2 d | B2 B AGA | G2 z z z G | %9
 d2 d e2 e | d2 e/f/ g2 G | d2 d e2 e | d2 e/f/ g2 G/A/ | B2 B BAB | c3 BcB | A2 A AGA | %16
 B3 G2 G/A/ | B2 B BAB | c3 B2 d | B2 B BAB | !fermata!G2 G,2 z || %21

